Newaita-dark/mimetypes/16/application-x-tzo.svg

<?xml version="1.0" encoding="UTF-8"?>
<svg xmlns="http://www.w3.org/2000/svg" xmlns:xlink="http://www.w3.org/1999/xlink" width="16px" height="16px" viewBox="0 0 16 16" version="1.1">
<defs>
<linearGradient id="linear0" gradientUnits="userSpaceOnUse" x1="254" y1="233.5" x2="254" y2="254.666672" gradientTransform="matrix(0.031253,0,0,0.031253,-0.00000190753,6.719393)">
<stop offset="0" style="stop-color:rgb(0%,0%,0%);stop-opacity:0.27451;"/>
<stop offset="1" style="stop-color:rgb(0%,0%,0%);stop-opacity:0;"/>
</linearGradient>
<radialGradient id="radial0" gradientUnits="userSpaceOnUse" cx="450.908936" cy="189.579361" fx="450.908936" fy="189.579361" r="21.166656" gradientTransform="matrix(0.0000000870852,-0.0390662,-0.0703192,-0.0000000507693,26.561465,31.797666)">
<stop offset="0" style="stop-color:rgb(0%,0%,0%);stop-opacity:0.313726;"/>
<stop offset="0.222222" style="stop-color:rgb(0%,0%,0%);stop-opacity:0.27451;"/>
<stop offset="1" style="stop-color:rgb(0%,0%,0%);stop-opacity:0;"/>
</radialGradient>
<radialGradient id="radial1" gradientUnits="userSpaceOnUse" cx="450.908936" cy="189.579361" fx="450.908936" fy="189.579361" r="21.166656" gradientTransform="matrix(-0.0000000870852,0.0390662,0.0703192,0.0000000507693,-10.60226,-3.763739)">
<stop offset="0" style="stop-color:rgb(0%,0%,0%);stop-opacity:0.313726;"/>
<stop offset="0.222222" style="stop-color:rgb(0%,0%,0%);stop-opacity:0.27451;"/>
<stop offset="1" style="stop-color:rgb(0%,0%,0%);stop-opacity:0;"/>
</radialGradient>
<radialGradient id="radial2" gradientUnits="userSpaceOnUse" cx="450.908936" cy="189.579361" fx="450.908936" fy="189.579361" r="21.166656" gradientTransform="matrix(-0.0000000870852,-0.0390662,0.0703192,-0.0000000507693,-10.60226,31.797666)">
<stop offset="0" style="stop-color:rgb(0%,0%,0%);stop-opacity:0.313726;"/>
<stop offset="0.222222" style="stop-color:rgb(0%,0%,0%);stop-opacity:0.27451;"/>
<stop offset="1" style="stop-color:rgb(0%,0%,0%);stop-opacity:0;"/>
</radialGradient>
<radialGradient id="radial3" gradientUnits="userSpaceOnUse" cx="450.908936" cy="189.579361" fx="450.908936" fy="189.579361" r="21.166656" gradientTransform="matrix(0.0000000870852,0.0390662,-0.0703192,0.0000000507693,26.561464,-3.76374)">
<stop offset="0" style="stop-color:rgb(0%,0%,0%);stop-opacity:0.313726;"/>
<stop offset="0.222222" style="stop-color:rgb(0%,0%,0%);stop-opacity:0.27451;"/>
<stop offset="1" style="stop-color:rgb(0%,0%,0%);stop-opacity:0;"/>
</radialGradient>
<linearGradient id="linear1" gradientUnits="userSpaceOnUse" x1="254" y1="-168.666656" x2="254" y2="233.5" gradientTransform="matrix(0.031253,0,0,0.031253,0,6.719392)">
<stop offset="0" style="stop-color:rgb(45.882353%,45.882353%,45.882353%);stop-opacity:1;"/>
<stop offset="1" style="stop-color:rgb(38.039216%,38.039216%,38.039216%);stop-opacity:1;"/>
</linearGradient>
<linearGradient id="linear2" gradientUnits="userSpaceOnUse" x1="148.166687" y1="-168.666809" x2="148.166687" y2="233.499863" gradientTransform="matrix(1,0,0,1,-31.750023,0.000142415)">
<stop offset="0" style="stop-color:rgb(38.039216%,38.039216%,38.039216%);stop-opacity:1;"/>
<stop offset="1" style="stop-color:rgb(25.882354%,25.882354%,25.882354%);stop-opacity:1;"/>
</linearGradient>
<linearGradient id="linear3" gradientUnits="userSpaceOnUse" x1="148.166687" y1="-168.666809" x2="148.166687" y2="233.499863" gradientTransform="matrix(1,0,0,1,201.083313,0.000142415)">
<stop offset="0" style="stop-color:rgb(38.039216%,38.039216%,38.039216%);stop-opacity:1;"/>
<stop offset="1" style="stop-color:rgb(25.882354%,25.882354%,25.882354%);stop-opacity:1;"/>
</linearGradient>
<linearGradient id="linear4" gradientUnits="userSpaceOnUse" x1="960" y1="1115.118164" x2="960" y2="675.118103" gradientTransform="matrix(0.264583,0,0,0.264583,-116.416687,-215)">
<stop offset="0" style="stop-color:rgb(74.117649%,74.117649%,74.117649%);stop-opacity:1;"/>
<stop offset="1" style="stop-color:rgb(87.843138%,87.843138%,87.843138%);stop-opacity:1;"/>
</linearGradient>
<linearGradient id="linear5" gradientUnits="userSpaceOnUse" x1="164.041641" y1="64.166664" x2="164.041641" y2="0.666662" gradientTransform="matrix(1,0,0,1,-21.16667,42.33334)">
<stop offset="0" style="stop-color:rgb(74.117649%,74.117649%,74.117649%);stop-opacity:1;"/>
<stop offset="1" style="stop-color:rgb(87.843138%,87.843138%,87.843138%);stop-opacity:1;"/>
</linearGradient>
<linearGradient id="linear6" gradientUnits="userSpaceOnUse" x1="158.75" y1="-115.75" x2="158.75" y2="286.416656" gradientTransform="matrix(1,0,0,1,-21.16667,-52.91666)">
<stop offset="0" style="stop-color:rgb(45.882353%,45.882353%,45.882353%);stop-opacity:1;"/>
<stop offset="1" style="stop-color:rgb(38.039216%,38.039216%,38.039216%);stop-opacity:1;"/>
</linearGradient>
<linearGradient id="linear7" gradientUnits="userSpaceOnUse" x1="960" y1="1115.118164" x2="960" y2="675.118103" gradientTransform="matrix(0.264583,0,0,0.264583,116.416649,-215)">
<stop offset="0" style="stop-color:rgb(74.117649%,74.117649%,74.117649%);stop-opacity:1;"/>
<stop offset="1" style="stop-color:rgb(87.843138%,87.843138%,87.843138%);stop-opacity:1;"/>
</linearGradient>
<linearGradient id="linear8" gradientUnits="userSpaceOnUse" x1="164.041641" y1="64.166664" x2="164.041641" y2="0.666662" gradientTransform="matrix(1,0,0,1,211.666672,42.33334)">
<stop offset="0" style="stop-color:rgb(74.117649%,74.117649%,74.117649%);stop-opacity:1;"/>
<stop offset="1" style="stop-color:rgb(87.843138%,87.843138%,87.843138%);stop-opacity:1;"/>
</linearGradient>
<linearGradient id="linear9" gradientUnits="userSpaceOnUse" x1="158.75" y1="-115.75" x2="158.75" y2="286.416656" gradientTransform="matrix(1,0,0,1,211.666672,-52.91666)">
<stop offset="0" style="stop-color:rgb(45.882353%,45.882353%,45.882353%);stop-opacity:1;"/>
<stop offset="1" style="stop-color:rgb(38.039216%,38.039216%,38.039216%);stop-opacity:1;"/>
</linearGradient>
</defs>
<g id="surface1">
<path style=" stroke:none;fill-rule:nonzero;fill:rgb(0%,0%,0%);fill-opacity:0.196078;" d="M 1.984375 14.015625 C 1.617188 14.015625 1.324219 13.722656 1.324219 13.355469 L 1.324219 13.273438 C 1.324219 13.640625 1.617188 13.933594 1.984375 13.933594 L 13.890625 13.933594 C 14.257812 13.933594 14.554688 13.640625 14.554688 13.273438 L 14.554688 13.355469 C 14.554688 13.722656 14.257812 14.015625 13.890625 14.015625 Z M 1.984375 14.015625 "/>
<path style=" stroke:none;fill-rule:nonzero;fill:url(#linear0);" d="M 2.5625 14.015625 L 13.394531 14.015625 L 13.394531 14.679688 L 2.5625 14.679688 Z M 2.5625 14.015625 "/>
<path style=" stroke:none;fill-rule:nonzero;fill:url(#radial0);" d="M 13.394531 14.015625 L 14.71875 14.015625 L 14.71875 13.355469 L 13.394531 13.355469 Z M 13.394531 14.015625 "/>
<path style=" stroke:none;fill-rule:nonzero;fill:url(#radial1);" d="M 2.5625 14.015625 L 1.242188 14.015625 L 1.242188 14.679688 L 2.5625 14.679688 Z M 2.5625 14.015625 "/>
<path style=" stroke:none;fill-rule:nonzero;fill:url(#radial2);" d="M 2.5625 14.015625 L 1.242188 14.015625 L 1.242188 13.355469 L 2.5625 13.355469 Z M 2.5625 14.015625 "/>
<path style=" stroke:none;fill-rule:nonzero;fill:url(#radial3);" d="M 13.394531 14.015625 L 14.71875 14.015625 L 14.71875 14.679688 L 13.394531 14.679688 Z M 13.394531 14.015625 "/>
<path style=" stroke:none;fill-rule:nonzero;fill:url(#linear1);" d="M 1.820312 1.449219 L 14.058594 1.449219 C 14.332031 1.449219 14.554688 1.671875 14.554688 1.945312 L 14.554688 13.519531 C 14.554688 13.792969 14.332031 14.015625 14.058594 14.015625 L 1.820312 14.015625 C 1.546875 14.015625 1.324219 13.792969 1.324219 13.519531 L 1.324219 1.945312 C 1.324219 1.671875 1.546875 1.449219 1.820312 1.449219 Z M 1.820312 1.449219 "/>
<path style=" stroke:none;fill-rule:nonzero;fill:rgb(100%,100%,100%);fill-opacity:0.392157;" d="M 1.820312 1.449219 C 1.542969 1.449219 1.324219 1.667969 1.324219 1.945312 L 1.324219 2.109375 C 1.324219 1.835938 1.542969 1.613281 1.820312 1.613281 L 14.058594 1.613281 C 14.332031 1.613281 14.554688 1.835938 14.554688 2.109375 L 14.554688 1.945312 C 14.554688 1.667969 14.332031 1.449219 14.058594 1.449219 Z M 1.820312 1.449219 "/>
<path style=" stroke:none;fill-rule:nonzero;fill:rgb(1.960784%,1.960784%,1.960784%);fill-opacity:0.235294;" d="M 1.820312 14.015625 C 1.542969 14.015625 1.324219 13.796875 1.324219 13.519531 L 1.324219 13.355469 C 1.324219 13.628906 1.542969 13.851562 1.820312 13.851562 L 14.058594 13.851562 C 14.332031 13.851562 14.554688 13.628906 14.554688 13.355469 L 14.554688 13.519531 C 14.554688 13.796875 14.332031 14.015625 14.058594 14.015625 Z M 1.820312 14.015625 "/>
<path style=" stroke:none;fill-rule:nonzero;fill:rgb(12.941177%,12.941177%,12.941177%);fill-opacity:1;" d="M 1.820312 1.402344 C 1.519531 1.402344 1.277344 1.644531 1.277344 1.945312 L 1.277344 13.519531 C 1.277344 13.820312 1.519531 14.0625 1.820312 14.0625 L 14.058594 14.0625 C 14.355469 14.0625 14.601562 13.820312 14.601562 13.519531 L 14.601562 1.945312 C 14.601562 1.644531 14.355469 1.402344 14.058594 1.402344 Z M 1.820312 1.496094 L 14.058594 1.496094 C 14.308594 1.496094 14.507812 1.695312 14.507812 1.945312 L 14.507812 13.519531 C 14.507812 13.769531 14.308594 13.96875 14.058594 13.96875 L 1.820312 13.96875 C 1.570312 13.96875 1.371094 13.769531 1.371094 13.519531 L 1.371094 1.945312 C 1.371094 1.695312 1.570312 1.496094 1.820312 1.496094 Z M 1.820312 1.496094 "/>
<path style="fill-rule:nonzero;fill:url(#linear2);stroke-width:3;stroke-linecap:round;stroke-linejoin:miter;stroke:rgb(12.941177%,12.941177%,12.941177%);stroke-opacity:1;stroke-miterlimit:4;" d="M 105.86489 -62.889526 L 169.358827 -62.889526 C 175.233266 -62.889526 179.857824 -58.139979 179.857824 -52.26554 L 179.857824 106.469301 C 179.857824 112.34374 175.233266 117.093287 169.358827 117.093287 L 105.86489 117.093287 C 99.990451 117.093287 95.240905 112.34374 95.240905 106.469301 L 95.240905 -52.26554 C 95.240905 -58.139979 99.990451 -62.889526 105.86489 -62.889526 Z M 105.86489 -62.889526 " transform="matrix(0.031253,0,0,0.031253,0,6.719392)"/>
<path style="fill-rule:nonzero;fill:url(#linear3);stroke-width:3;stroke-linecap:round;stroke-linejoin:miter;stroke:rgb(12.941177%,12.941177%,12.941177%);stroke-opacity:1;stroke-miterlimit:4;" d="M 338.717654 -62.889526 L 402.211591 -62.889526 C 407.961042 -62.889526 412.710588 -58.139979 412.710588 -52.26554 L 412.710588 106.469301 C 412.710588 112.34374 407.961042 117.093287 402.211591 117.093287 L 338.717654 117.093287 C 332.843215 117.093287 328.093669 112.34374 328.093669 106.469301 L 328.093669 -52.26554 C 328.093669 -58.139979 332.843215 -62.889526 338.717654 -62.889526 Z M 338.717654 -62.889526 " transform="matrix(0.031253,0,0,0.031253,0,6.719392)"/>
<path style=" stroke:none;fill-rule:nonzero;fill:rgb(0%,0%,0%);fill-opacity:0.196078;" d="M 1.324219 7.648438 L 14.554688 7.648438 L 14.554688 7.734375 L 1.324219 7.734375 Z M 1.324219 7.648438 "/>
<path style=" stroke:none;fill-rule:nonzero;fill:rgb(90.196079%,90.196079%,90.196079%);fill-opacity:0.588235;" d="M 1.324219 7.734375 L 14.554688 7.734375 L 14.554688 7.816406 L 1.324219 7.816406 Z M 1.324219 7.734375 "/>
<path style=" stroke:none;fill-rule:nonzero;fill:rgb(12.941177%,12.941177%,12.941177%);fill-opacity:0.992157;" d="M 1.324219 7.691406 L 14.554688 7.691406 L 14.554688 7.773438 L 1.324219 7.773438 Z M 1.324219 7.691406 "/>
<path style="fill-rule:nonzero;fill:url(#linear4);stroke-width:3;stroke-linecap:round;stroke-linejoin:round;stroke:rgb(12.941177%,12.941177%,12.941177%);stroke-opacity:1;stroke-miterlimit:4;" d="M 116.363888 -36.392056 C 110.614437 -36.392056 105.86489 -31.64251 105.86489 -25.768071 L 105.86489 69.472834 C 105.86489 75.347273 110.614437 80.09682 116.363888 80.09682 L 158.734842 80.09682 C 164.609281 80.09682 169.358827 75.347273 169.358827 69.472834 L 169.358827 -25.768071 C 169.358827 -31.64251 164.609281 -36.392056 158.734842 -36.392056 Z M 119.113625 -28.39282 L 156.110092 -28.39282 C 158.984818 -28.39282 161.359591 -26.018047 161.359591 -23.143321 L 161.359591 66.848085 C 161.359591 69.72281 158.984818 72.097584 156.110092 72.097584 L 119.113625 72.097584 C 116.113912 72.097584 113.739138 69.72281 113.739138 66.848085 L 113.739138 -23.143321 C 113.739138 -26.018047 116.113912 -28.39282 119.113625 -28.39282 Z M 119.113625 -28.39282 " transform="matrix(0.031253,0,0,0.031253,0,6.719392)"/>
<path style="fill-rule:nonzero;fill:url(#linear5);stroke-width:3;stroke-linecap:round;stroke-linejoin:miter;stroke:rgb(12.941177%,12.941177%,12.941177%);stroke-opacity:1;stroke-miterlimit:4;" d="M 126.987873 42.975365 L 148.110856 42.975365 C 153.985295 42.975365 158.734842 47.724911 158.734842 53.59935 L 158.734842 95.970304 C 158.734842 101.719755 153.985295 106.469301 148.110856 106.469301 L 126.987873 106.469301 C 121.113434 106.469301 116.363888 101.719755 116.363888 95.970304 L 116.363888 53.59935 C 116.363888 47.724911 121.113434 42.975365 126.987873 42.975365 Z M 126.987873 42.975365 " transform="matrix(0.031253,0,0,0.031253,0,6.719392)"/>
<path style="fill-rule:nonzero;fill:url(#linear6);stroke-width:3;stroke-linecap:round;stroke-linejoin:miter;stroke:rgb(12.941177%,12.941177%,12.941177%);stroke-opacity:1;stroke-miterlimit:4;" d="M 126.987873 -52.26554 L 148.110856 -52.26554 C 153.985295 -52.26554 158.734842 -47.515994 158.734842 -41.641555 L 158.734842 -25.768071 C 158.734842 -19.893632 153.985295 -15.269073 148.110856 -15.269073 L 126.987873 -15.269073 C 121.113434 -15.269073 116.363888 -19.893632 116.363888 -25.768071 L 116.363888 -41.641555 C 116.363888 -47.515994 121.113434 -52.26554 126.987873 -52.26554 Z M 126.987873 -52.26554 " transform="matrix(0.031253,0,0,0.031253,0,6.719392)"/>
<path style="fill-rule:nonzero;fill:url(#linear7);stroke-width:3;stroke-linecap:round;stroke-linejoin:round;stroke:rgb(12.941177%,12.941177%,12.941177%);stroke-opacity:1;stroke-miterlimit:4;" d="M 349.216651 -36.392056 C 343.342212 -36.392056 338.717654 -31.64251 338.717654 -25.768071 L 338.717654 69.472834 C 338.717654 75.347273 343.342212 80.09682 349.216651 80.09682 L 391.587605 80.09682 C 397.462044 80.09682 402.211591 75.347273 402.211591 69.472834 L 402.211591 -25.768071 C 402.211591 -31.64251 397.462044 -36.392056 391.587605 -36.392056 Z M 351.841401 -28.39282 L 388.962856 -28.39282 C 391.837581 -28.39282 394.212355 -26.018047 394.212355 -23.143321 L 394.212355 66.848085 C 394.212355 69.72281 391.837581 72.097584 388.962856 72.097584 L 351.841401 72.097584 C 348.966675 72.097584 346.591902 69.72281 346.591902 66.848085 L 346.591902 -23.143321 C 346.591902 -26.018047 348.966675 -28.39282 351.841401 -28.39282 Z M 351.841401 -28.39282 " transform="matrix(0.031253,0,0,0.031253,0,6.719392)"/>
<path style="fill-rule:nonzero;fill:url(#linear8);stroke-width:3;stroke-linecap:round;stroke-linejoin:miter;stroke:rgb(12.941177%,12.941177%,12.941177%);stroke-opacity:1;stroke-miterlimit:4;" d="M 359.840637 42.975365 L 380.96362 42.975365 C 386.838059 42.975365 391.587605 47.724911 391.587605 53.59935 L 391.587605 95.970304 C 391.587605 101.719755 386.838059 106.469301 380.96362 106.469301 L 359.840637 106.469301 C 353.966198 106.469301 349.216651 101.719755 349.216651 95.970304 L 349.216651 53.59935 C 349.216651 47.724911 353.966198 42.975365 359.840637 42.975365 Z M 359.840637 42.975365 " transform="matrix(0.031253,0,0,0.031253,0,6.719392)"/>
<path style="fill-rule:nonzero;fill:url(#linear9);stroke-width:3;stroke-linecap:round;stroke-linejoin:miter;stroke:rgb(12.941177%,12.941177%,12.941177%);stroke-opacity:1;stroke-miterlimit:4;" d="M 359.840637 -52.26554 L 380.96362 -52.26554 C 386.838059 -52.26554 391.587605 -47.515994 391.587605 -41.641555 L 391.587605 -25.768071 C 391.587605 -19.893632 386.838059 -15.269073 380.96362 -15.269073 L 359.840637 -15.269073 C 353.966198 -15.269073 349.216651 -19.893632 349.216651 -25.768071 L 349.216651 -41.641555 C 349.216651 -47.515994 353.966198 -52.26554 359.840637 -52.26554 Z M 359.840637 -52.26554 " transform="matrix(0.031253,0,0,0.031253,0,6.719392)"/>
</g>
</svg>

<svg height="16pt" viewBox="0 0 16 16" width="16pt" xmlns="http://www.w3.org/2000/svg" xmlns:xlink="http://www.w3.org/1999/xlink"><linearGradient id="a" gradientUnits="userSpaceOnUse" x1="7.9375" x2="7.9375" y1="14.016875" y2="14.67834375"><stop offset="0" stop-opacity=".275"/><stop offset="1" stop-opacity="0"/></linearGradient><linearGradient id="b"><stop offset="0" stop-opacity=".314"/><stop offset=".222" stop-opacity=".275"/><stop offset="1" stop-opacity="0"/></linearGradient><radialGradient id="c" cx="450.909" cy="189.579" gradientTransform="matrix(0 -.03907 -.07032 0 26.561 31.798)" gradientUnits="userSpaceOnUse" r="21.167" xlink:href="#b"/><radialGradient id="d" cx="450.909" cy="189.579" gradientTransform="matrix(0 .03907 .07032 0 -10.602 -3.764)" gradientUnits="userSpaceOnUse" r="21.167" xlink:href="#b"/><radialGradient id="e" cx="450.909" cy="189.579" gradientTransform="matrix(0 -.03907 .07032 0 -10.602 31.798)" gradientUnits="userSpaceOnUse" r="21.167" xlink:href="#b"/><radialGradient id="f" cx="450.909" cy="189.579" gradientTransform="matrix(0 .03907 -.07032 0 26.561 -3.764)" gradientUnits="userSpaceOnUse" r="21.167" xlink:href="#b"/><linearGradient id="g"><stop offset="0" stop-color="#757575"/><stop offset="1" stop-color="#616161"/></linearGradient><linearGradient id="h" gradientUnits="userSpaceOnUse" x1="7.9375" x2="7.9375" xlink:href="#g" y1="1.44915625" y2="14.016875"/><linearGradient id="i"><stop offset="0" stop-color="#616161"/><stop offset="1" stop-color="#424242"/></linearGradient><linearGradient id="j" gradientUnits="userSpaceOnUse" x1="116.417" x2="116.417" xlink:href="#i" y1="-168.667" y2="233.5"/><linearGradient id="k" gradientUnits="userSpaceOnUse" x1="349.25" x2="349.25" xlink:href="#i" y1="-168.667" y2="233.5"/><linearGradient id="l"><stop offset="0" stop-color="#bdbdbd"/><stop offset="1" stop-color="#e0e0e0"/></linearGradient><linearGradient id="m" gradientUnits="userSpaceOnUse" x1="137.5798" x2="137.5798" xlink:href="#l" y1="80.03792044" y2="-36.37727956"/><linearGradient id="n" gradientUnits="userSpaceOnUse" x1="142.875" x2="142.875" xlink:href="#l" y1="106.5" y2="43"/><linearGradient id="o" gradientUnits="userSpaceOnUse" x1="137.583" x2="137.583" xlink:href="#g" y1="-168.667" y2="233.5"/><linearGradient id="p" gradientUnits="userSpaceOnUse" x1="370.4138" x2="370.4138" xlink:href="#l" y1="80.03792044" y2="-36.37727956"/><linearGradient id="q" gradientUnits="userSpaceOnUse" x1="375.709" x2="375.709" xlink:href="#l" y1="106.5" y2="43"/><linearGradient id="r" gradientUnits="userSpaceOnUse" x1="370.417" x2="370.417" xlink:href="#g" y1="-168.667" y2="233.5"/><path d="m1.984 14.016a.657.657 0 0 1 -.66-.66v-.083c0 .368.293.66.66.66h11.907a.66.66 0 0 0 .664-.66v.082a.66.66 0 0 1 -.664.66zm0 0" fill-opacity=".196"/><path d="m2.563 14.016h10.832v.664h-10.832zm0 0" fill="url(#a)"/><path d="m13.395 14.016h1.324v-.66h-1.324zm0 0" fill="url(#c)"/><path d="m2.563 14.016h-1.32v.664h1.32zm0 0" fill="url(#d)"/><path d="m2.563 14.016h-1.32v-.66h1.32zm0 0" fill="url(#e)"/><path d="m13.395 14.016h1.324v.664h-1.324zm0 0" fill="url(#f)"/><path d="m1.82 1.45h12.24c.273 0 .496.222.496.495v11.575a.497.497 0 0 1 -.496.496h-12.24a.497.497 0 0 1 -.496-.496v-11.575c0-.273.223-.496.496-.496zm0 0" fill="url(#h)"/><path d="m1.82 1.45a.492.492 0 0 0 -.496.495v.164c0-.273.219-.496.496-.496h12.24c.273 0 .496.223.496.496v-.164a.494.494 0 0 0 -.496-.496zm0 0" fill="#fff" fill-opacity=".392"/><path d="m1.82 14.016a.492.492 0 0 1 -.496-.496v-.165c0 .274.219.497.496.497h12.24a.497.497 0 0 0 .496-.497v.165a.494.494 0 0 1 -.496.496zm0 0" fill="#050505" fill-opacity=".235"/><path d="m1.82 1.402c-.3 0-.543.243-.543.543v11.575c0 .3.243.543.543.543h12.24a.544.544 0 0 0 .543-.543v-11.575c0-.3-.247-.543-.543-.543zm0 .094h12.24c.25 0 .449.2.449.45v11.574c0 .25-.2.449-.45.449h-12.239c-.25 0-.449-.2-.449-.45v-11.573c0-.25.2-.449.45-.449zm0 0" fill="#212121"/><path d="m105.865-62.89h63.494c5.874 0 10.499 4.75 10.499 10.624v158.736c0 5.875-4.625 10.624-10.5 10.624h-63.493a10.615 10.615 0 0 1 -10.625-10.624v-158.736c0-5.874 4.75-10.624 10.624-10.624zm0 0" fill="url(#j)" stroke="#212121" stroke-linecap="round" stroke-width="3" transform="matrix(.03125 0 0 .03125 0 6.72)"/><path d="m338.718-62.89h63.494c5.749 0 10.499 4.75 10.499 10.624v158.736c0 5.875-4.75 10.624-10.5 10.624h-63.493a10.615 10.615 0 0 1 -10.624-10.624v-158.736c0-5.874 4.75-10.624 10.624-10.624zm0 0" fill="url(#k)" stroke="#212121" stroke-linecap="round" stroke-width="3" transform="matrix(.03125 0 0 .03125 0 6.72)"/><path d="m1.324 7.648h13.23v.086h-13.229zm0 0" fill-opacity=".196"/><path d="m1.324 7.734h13.23v.082h-13.229zm0 0" fill="#e6e6e6" fill-opacity=".588"/><path d="m1.324 7.691h13.23v.082h-13.229zm0 0" fill="#212121" fill-opacity=".992"/><g stroke="#212121" stroke-linecap="round" stroke-width="3"><path d="m116.364-36.392c-5.75 0-10.5 4.75-10.5 10.624v95.24c0 5.875 4.75 10.625 10.5 10.625h42.37c5.875 0 10.625-4.75 10.625-10.624v-95.241c0-5.875-4.75-10.624-10.624-10.624zm2.75 8h36.996c2.875 0 5.25 2.374 5.25 5.249v89.991c0 2.875-2.375 5.25-5.25 5.25h-36.996c-3 0-5.375-2.375-5.375-5.25v-89.991c0-2.875 2.375-5.25 5.375-5.25zm0 0" fill="url(#m)" stroke-linejoin="round" transform="matrix(.03125 0 0 .03125 0 6.72)"/><path d="m126.988 42.975h21.123c5.874 0 10.624 4.75 10.624 10.624v42.371c0 5.75-4.75 10.5-10.624 10.5h-21.123c-5.875 0-10.624-4.75-10.624-10.5v-42.37c0-5.875 4.75-10.625 10.624-10.625zm0 0" fill="url(#n)" transform="matrix(.03125 0 0 .03125 0 6.72)"/><path d="m126.988-52.266h21.123c5.874 0 10.624 4.75 10.624 10.624v15.874c0 5.874-4.75 10.499-10.624 10.499h-21.123c-5.875 0-10.624-4.625-10.624-10.5v-15.873c0-5.874 4.75-10.624 10.624-10.624zm0 0" fill="url(#o)" transform="matrix(.03125 0 0 .03125 0 6.72)"/><path d="m349.217-36.392c-5.875 0-10.5 4.75-10.5 10.624v95.24c0 5.875 4.625 10.625 10.5 10.625h42.37c5.875 0 10.625-4.75 10.625-10.624v-95.241c0-5.875-4.75-10.624-10.624-10.624zm2.624 8h37.122c2.875 0 5.25 2.374 5.25 5.249v89.991c0 2.875-2.375 5.25-5.25 5.25h-37.123c-2.874 0-5.25-2.375-5.25-5.25v-89.991c0-2.875 2.376-5.25 5.25-5.25zm0 0" fill="url(#p)" stroke-linejoin="round" transform="matrix(.03125 0 0 .03125 0 6.72)"/><path d="m359.84 42.975h21.124c5.874 0 10.624 4.75 10.624 10.624v42.371c0 5.75-4.75 10.5-10.624 10.5h-21.124c-5.875 0-10.624-4.75-10.624-10.5v-42.37c0-5.875 4.75-10.625 10.624-10.625zm0 0" fill="url(#q)" transform="matrix(.03125 0 0 .03125 0 6.72)"/><path d="m359.84-52.266h21.124c5.874 0 10.624 4.75 10.624 10.624v15.874c0 5.874-4.75 10.499-10.624 10.499h-21.124c-5.875 0-10.624-4.625-10.624-10.5v-15.873c0-5.874 4.75-10.624 10.624-10.624zm0 0" fill="url(#r)" transform="matrix(.03125 0 0 .03125 0 6.72)"/></g></svg>
